world_stage/static/flags/rect/cod.svg

<svg height="800" viewBox="0 0 1200 800" width="1200" xmlns="http://www.w3.org/2000/svg"><path d="m0 0h900v600h-900z" fill="#007fff" transform="matrix(1.3333333 0 0 -1.3333333 0 800)"/><path d="m0 0-843.75-450v-150h56.25l843.75 450v150zm-708.75-120.001h-94.5l76.5-51.999-29.25-84.001 76.5 52.001 76.5-52.001-29.25 84.001 76.5 51.999h-94.5l-29.25 84.001z" fill="#f7d618" transform="matrix(1.3333333 0 0 -1.3333333 1125 -.0004)"/><path d="m0 0-900-480.001v-119.999l900 479.999z" fill="#ce1021" transform="matrix(1.3333333 0 0 -1.3333333 1200 -.0004)"/></svg>

<?xml version="1.0" encoding="UTF-8" standalone="no"?>
<!-- Created with Inkscape (http://www.inkscape.org/) -->

<svg
   version="1.1"
   id="svg1"
   width="1200"
   height="800"
   viewBox="0 0 1200 800"
   sodipodi:docname="cd.ai"
   xmlns:inkscape="http://www.inkscape.org/namespaces/inkscape"
   xmlns:sodipodi="http://sodipodi.sourceforge.net/DTD/sodipodi-0.dtd"
   xmlns="http://www.w3.org/2000/svg"
   xmlns:svg="http://www.w3.org/2000/svg">
  <defs
     id="defs1" />
  <sodipodi:namedview
     id="namedview1"
     pagecolor="#ffffff"
     bordercolor="#000000"
     borderopacity="0.25"
     inkscape:showpageshadow="2"
     inkscape:pageopacity="0.0"
     inkscape:pagecheckerboard="0"
     inkscape:deskcolor="#d1d1d1">
    <inkscape:page
       x="0"
       y="0"
       inkscape:label="1"
       id="page1"
       width="1200"
       height="800"
       margin="0"
       bleed="0" />
  </sodipodi:namedview>
  <g
     id="layer-MC0"
     inkscape:groupmode="layer"
     inkscape:label="Layer 1">
    <path
       id="path1"
       d="M 0,0 H 900 V 600 H 0 Z"
       style="fill:#007fff;fill-opacity:1;fill-rule:nonzero;stroke:none"
       transform="matrix(1.3333333,0,0,-1.3333333,0,800)" />
    <path
       id="path2"
       d="m 0,0 -843.75,-450 v -150 h 56.25 L 56.25,-150 V 0 Z m -708.75,-120.001 h -94.5 l 76.5,-51.999 -29.25,-84.001 76.5,52.001 76.5,-52.001 -29.25,84.001 76.5,51.999 h -94.5 L -679.5,-36 Z"
       style="fill:#f7d618;fill-opacity:1;fill-rule:nonzero;stroke:none"
       transform="matrix(1.3333333,0,0,-1.3333333,1125,-4e-4)" />
    <path
       id="path3"
       d="M 0,0 -900,-480.001 V -600 L 0,-120.001 Z"
       style="fill:#ce1021;fill-opacity:1;fill-rule:nonzero;stroke:none"
       transform="matrix(1.3333333,0,0,-1.3333333,1200,-4e-4)" />
  </g>
</svg>
